; HEADER_BLOCK_START
; generated by OrcaSlicer 2.3.0 on 2025-07-18 at 11:19:16
; total layer number: 240
;_GP_TOTAL_LAYER_NUMBER_PLACEHOLDER
; filament_density: 1.24,1.24,1.24,1.24
; filament_diameter: 1.75,1.75,1.75,1.75
; max_z_height: 48.00
; HEADER_BLOCK_END

; THUMBNAIL_BLOCK_START

;
; THUMBNAIL_BLOCK_END

; external perimeters extrusion width = 0.42mm
; perimeters extrusion width = 0.45mm
; infill extrusion width = 0.45mm
; solid infill extrusion width = 0.42mm
; top infill extrusion width = 0.42mm
; first layer extrusion width = 0.50mm

; external perimeters extrusion width = 0.42mm
; perimeters extrusion width = 0.45mm
; infill extrusion width = 0.45mm
; solid infill extrusion width = 0.42mm
; top infill extrusion width = 0.42mm
; first layer extrusion width = 0.50mm

; external perimeters extrusion width = 0.42mm
; perimeters extrusion width = 0.45mm
; infill extrusion width = 0.45mm
; solid infill extrusion width = 0.42mm
; top infill extrusion width = 0.42mm
; first layer extrusion width = 0.50mm

; external perimeters extrusion width = 0.42mm
; perimeters extrusion width = 0.45mm
; infill extrusion width = 0.45mm
; solid infill extrusion width = 0.42mm
; top infill extrusion width = 0.42mm
; first layer extrusion width = 0.50mm

; EXECUTABLE_BLOCK_START
EXCLUDE_OBJECT_DEFINE NAME=小船_cut_1_id_0_copy_0 CENTER=150,150 POLYGON=[[119.999,140.816],[120.003,140.755],[120.006,140.699],[120.011,140.646],[120.013,140.63],[120.019,140.583],[120.029,140.525],[120.045,140.436],[120.059,140.379],[120.073,140.322],[120.081,140.296],[120.098,140.239],[120.127,140.155],[120.141,140.118],[120.163,140.064],[120.17,140.047],[120.185,140.01],[120.21,139.958],[120.231,139.916],[120.263,139.854],[120.279,139.827],[120.29,139.806],[120.339,139.727],[120.371,139.679],[120.388,139.655],[120.406,139.631],[120.441,139.584],[120.483,139.531],[120.509,139.501],[120.538,139.466],[120.579,139.423],[120.593,139.408],[120.6,139.4],[120.642,139.359],[120.662,139.34],[120.705,139.3],[120.738,139.271],[120.782,139.234],[120.794,139.225],[120.829,139.197],[120.886,139.154],[120.934,139.121],[120.978,139.092],[121.045,139.052],[121.072,139.036],[121.123,139.008],[121.149,138.995],[121.176,138.981],[121.198,138.97],[121.253,138.944],[121.311,138.919],[121.362,138.899],[121.416,138.879],[121.428,138.875],[121.471,138.861],[121.484,138.857],[121.54,138.84],[121.547,138.838],[121.585,138.828],[121.596,138.825],[121.624,138.818],[121.641,138.814],[121.711,138.799],[121.768,138.789],[121.797,138.784],[149.812,134.886],[150.055,134.853],[150.299,134.821],[150.543,134.791],[150.882,134.752],[151.105,134.728],[151.35,134.702],[151.596,134.678],[151.842,134.656],[152.087,134.635],[152.253,134.622],[152.333,134.616],[152.523,134.602],[152.579,134.598],[152.826,134.581],[152.987,134.571],[153.071,134.566],[153.232,134.557],[153.489,134.544],[153.597,134.539],[153.619,134.538],[153.755,134.532],[153.906,134.526],[154.05,134.521],[154.167,134.517],[154.233,134.515],[154.342,134.512],[154.46,134.509],[154.548,134.507],[154.689,134.504],[154.881,134.501],[155.062,134.499],[155.18,134.498],[155.578,134.498],[155.934,134.5],[156.369,134.508],[156.449,134.51],[156.805,134.52],[156.912,134.524],[157.24,134.537],[157.677,134.558],[158.01,134.578],[158.093,134.583],[158.203,134.59],[158.375,134.602],[158.495,134.611],[158.641,134.622],[158.729,134.629],[158.909,134.644],[159.04,134.655],[159.832,134.78],[159.841,134.782],[160.269,134.888],[160.377,134.915],[160.595,134.97],[160.737,135.007],[160.813,135.027],[160.967,135.068],[161.248,135.145],[161.424,135.195],[161.68,135.27],[161.896,135.334],[162.111,135.4],[162.332,135.47],[162.558,135.543],[162.752,135.607],[163.008,135.694],[163.178,135.753],[163.232,135.772],[163.4,135.832],[163.601,135.905],[163.822,135.987],[164.033,136.067],[164.233,136.145],[164.343,136.188],[164.443,136.228],[164.453,136.232],[164.662,136.316],[164.871,136.402],[164.927,136.425],[165.134,136.513],[165.341,136.603],[165.547,136.693],[165.957,136.879],[166.16,136.974],[166.363,137.07],[166.565,137.168],[166.766,137.267],[166.967,137.367],[167.166,137.469],[167.365,137.572],[167.564,137.677],[167.761,137.783],[167.957,137.89],[168.153,137.999],[168.543,138.221],[168.737,138.334],[168.93,138.449],[169.123,138.565],[169.314,138.683],[169.505,138.801],[169.696,138.922],[169.885,139.043],[170.074,139.167],[170.262,139.291],[170.45,139.417],[170.637,139.544],[170.823,139.673],[171.008,139.803],[171.192,139.934],[171.376,140.067],[171.559,140.201],[171.742,140.337],[171.923,140.474],[172.105,140.612],[172.284,140.752],[172.463,140.893],[172.642,141.036],[172.82,141.18],[172.998,141.325],[173.173,141.472],[173.348,141.621],[173.523,141.77],[173.697,141.921],[173.87,142.074],[174.042,142.228],[174.214,142.384],[174.328,142.489],[174.498,142.645],[174.665,142.803],[174.831,142.962],[174.996,143.122],[175.161,143.283],[175.324,143.445],[175.486,143.609],[175.647,143.773],[175.807,143.939],[175.966,144.106],[176.124,144.274],[176.281,144.443],[176.437,144.614],[176.592,144.785],[176.745,144.958],[176.898,145.132],[177.05,145.306],[177.2,145.483],[177.35,145.66],[177.498,145.838],[177.645,146.017],[177.791,146.198],[177.936,146.38],[178.08,146.563],[178.224,146.747],[178.364,146.932],[178.505,147.118],[178.645,147.305],[178.783,147.493],[178.92,147.683],[179.057,147.874],[179.191,148.065],[179.325,148.258],[179.459,148.452],[179.589,148.647],[179.619,148.692],[179.651,148.745],[179.683,148.798],[179.712,148.852],[179.741,148.907],[179.768,148.962],[179.793,149.019],[179.818,149.076],[179.834,149.117],[179.856,149.175],[179.876,149.233],[179.895,149.292],[179.912,149.351],[179.928,149.413],[179.942,149.47],[179.954,149.53],[179.966,149.593],[179.975,149.652],[179.983,149.713],[179.99,149.774],[179.995,149.836],[179.998,149.905],[180.001,149.966],[180.001,150.027],[179.999,150.088],[179.996,150.149],[179.991,150.209],[179.985,150.27],[179.977,150.331],[179.968,150.391],[179.959,150.449],[179.946,150.512],[179.933,150.569],[179.916,150.632],[179.901,150.686],[179.883,150.745],[179.863,150.803],[179.843,150.861],[179.821,150.918],[179.796,150.974],[179.772,151.03],[179.744,151.086],[179.716,151.14],[179.686,151.194],[179.655,151.248],[179.623,151.301],[179.589,151.353],[179.473,151.527],[179.339,151.721],[179.205,151.914],[179.071,152.106],[178.935,152.297],[178.797,152.487],[178.659,152.676],[178.52,152.864],[178.379,153.05],[178.237,153.236],[178.094,153.42],[177.95,153.604],[177.658,153.968],[177.51,154.148],[177.362,154.328],[177.21,154.506],[177.059,154.683],[176.906,154.86],[176.752,155.035],[176.597,155.209],[176.482,155.337],[176.325,155.509],[176.167,155.68],[176.008,155.85],[175.848,156.018],[175.687,156.186],[175.525,156.352],[175.199,156.68],[174.869,157.002],[174.703,157.161],[174.535,157.319],[174.367,157.475],[174.198,157.63],[174.028,157.784],[173.857,157.937],[173.685,158.089],[173.512,158.239],[173.338,158.388],[173.163,158.536],[172.987,158.682],[172.81,158.827],[172.632,158.971],[172.454,159.114],[172.274,159.256],[172.093,159.396],[171.911,159.535],[171.728,159.673],[171.544,159.81],[171.359,159.945],[171.173,160.08],[170.986,160.212],[170.799,160.344],[170.61,160.474],[170.421,160.603],[170.23,160.731],[170.038,160.857],[169.846,160.982],[169.652,161.106],[169.458,161.228],[169.263,161.349],[169.066,161.469],[168.869,161.587],[168.671,161.704],[168.472,161.819],[168.272,161.934],[168.072,162.046],[167.87,162.158],[167.594,162.307],[167.395,162.412],[167.196,162.516],[166.996,162.618],[166.796,162.719],[166.594,162.818],[166.392,162.916],[166.19,163.012],[165.987,163.107],[165.783,163.2],[165.579,163.292],[165.374,163.383],[165.169,163.472],[164.963,163.559],[164.756,163.645],[164.666,163.682],[164.549,163.73],[164.341,163.813],[164.122,163.898],[164.003,163.944],[163.704,164.057],[163.493,164.134],[163.293,164.206],[163.071,164.284],[162.884,164.348],[162.656,164.424],[162.443,164.494],[162.206,164.57],[162.005,164.632],[161.979,164.64],[161.751,164.709],[161.523,164.776],[161.295,164.841],[161.142,164.884],[161.065,164.905],[160.924,164.943],[160.706,165.001],[160.606,165.027],[160.488,165.057],[160.269,165.112],[159.844,165.218],[159.316,165.319],[159.306,165.32],[159.05,165.344],[159.004,165.348],[158.81,165.364],[158.725,165.371],[158.561,165.384],[158.481,165.39],[158.135,165.414],[157.689,165.441],[157.649,165.443],[157.264,165.462],[157.126,165.468],[156.778,165.481],[156.564,165.487],[156.344,165.493],[155.907,165.5],[155.521,165.502],[155.177,165.502],[154.877,165.499],[154.821,165.498],[154.599,165.494],[154.456,165.491],[154.338,165.488],[154.166,165.483],[154.076,165.48],[153.93,165.475],[153.752,165.468],[153.728,165.467],[153.57,165.46],[153.462,165.455],[153.332,165.448],[153.133,165.437],[152.889,165.423],[152.644,165.407],[152.629,165.406],[152.342,165.385],[152.096,165.366],[151.849,165.345],[151.667,165.328],[151.603,165.322],[151.423,165.305],[151.179,165.28],[151.111,165.273],[150.935,165.254],[150.619,165.218],[150.373,165.188],[150.204,165.166],[149.882,165.124],[121.828,161.22],[121.793,161.215],[121.742,161.207],[121.685,161.196],[121.654,161.189],[121.596,161.175],[121.585,161.172],[121.547,161.162],[121.537,161.159],[121.481,161.142],[121.428,161.125],[121.416,161.121],[121.362,161.101],[121.311,161.081],[121.253,161.056],[121.198,161.03],[121.156,161.009],[121.105,160.982],[121.087,160.972],[121.045,160.948],[120.992,160.917],[120.978,160.908],[120.943,160.885],[120.934,160.879],[120.886,160.846],[120.848,160.817],[120.839,160.811],[120.794,160.775],[120.755,160.744],[120.748,160.738],[120.705,160.7],[120.662,160.66],[120.641,160.64],[120.593,160.592],[120.558,160.555],[120.538,160.534],[120.518,160.511],[120.481,160.466],[120.444,160.42],[120.43,160.402],[120.409,160.374],[120.406,160.37],[120.372,160.322],[120.357,160.3],[120.343,160.278],[120.309,160.224],[120.279,160.173],[120.251,160.122],[120.231,160.084],[120.218,160.06],[120.196,160.012],[120.17,159.954],[120.149,159.903],[120.128,159.849],[120.108,159.793],[120.107,159.79],[120.091,159.738],[120.074,159.682],[120.059,159.625],[120.045,159.564],[120.034,159.507],[120.025,159.454],[120.024,159.448],[120.017,159.396],[120.011,159.353],[120.009,159.325],[120.003,159.245],[120.001,159.208],[119.999,159.179],[119.999,140.816]]
M106 S0
M106 P2 S0
;TYPE:Custom
M107
G90
M140 S60 ; set bed temperature
M104 S140 ; set temperature
M190 S60 ; set bed temperature
M109 S140 ; set temperature
PG28
M106 S255 
G30
;AUTO_LEVELING_2
M106 S0
G21
M83
M190 S60
M109 S210
PRINT_START EXTRUDER=210 BED=60
P0 M1
P28
G90
G21
M83 ; use relative distances for extrusion
T0
; Filament gcode
G1 Z.2 F18000
M106 S0
M106 P2 S0
;LAYER_CHANGE
;Z:0.2
;HEIGHT:0.2
; BEFORE_LAYER_CHANGE 0 @ 0.2mm
; AFTER_LAYER_CHANGE 0 @ 0.2mm
;_SET_FAN_SPEED_CHANGING_LAYER
SET_VELOCITY_LIMIT ACCEL=500 ACCEL_TO_DECEL=250
SET_VELOCITY_LIMIT SQUARE_CORNER_VELOCITY=9
G1 E-.8 F2400
G1 Z.6 F18000
G1 X165.5 Y250.5
G1 Z.6
G1 Z.2
G1 E.8 F2400
;HEIGHT:0.2
;TYPE:Prime tower
;WIDTH:0.5
G1  X199.500 Y250.500  E1.2922 F3000
G1  Y253.000  E0.0950
G1  X165.500  E1.2922
G1  Y250.500  E0.0950
G1  X199.500 
G1  Y253.000 
G1  X198.500 
;--------------------
; CP EMPTY GRID START
; layer #1
G1  Y252.500  E0.0190
G1  X166.000  E1.2352
G1  Y252.000  E0.0190
G1  X199.000  E1.2542
G1  Y251.500  E0.0190
G1  X166.000  E1.2542
G1  Y251.000  E0.0190
G1  X199.000  E1.2542
G1  Y250.500  E0.0190
; CP EMPTY GRID END
;------------------






G1  X200.000 Y250.000  
G1  Y253.500  E0.1330
G1  X186.591  E0.5096
G1  X186.482 Y253.736   E0.0099
G1  X186.360 Y253.964   E0.0099
G1  X186.224 Y254.186   E0.0099
G1  X186.076 Y254.399   E0.0099
G1  X185.915 Y254.602   E0.0099
G1  X185.743 Y254.797   E0.0099
G1  X185.560 Y254.981   E0.0099
G1  X185.367 Y255.154   E0.0099
G1  X185.163 Y255.315   E0.0099
G1  X184.951 Y255.464   E0.0099
G1  X184.730 Y255.601   E0.0099
G1  X184.502 Y255.724   E0.0099
G1  X184.267 Y255.834   E0.0099
G1  X184.026 Y255.930   E0.0099
G1  X183.779 Y256.012   E0.0099
G1  X183.529 Y256.079   E0.0099
G1  X183.275 Y256.132   E0.0099
G1  X183.018 Y256.170   E0.0099
G1  X182.759 Y256.192   E0.0099
G1  X182.500 Y256.200   E0.0099
G1  X182.241 Y256.192   E0.0099
G1  X181.982 Y256.170   E0.0099
G1  X181.725 Y256.132   E0.0099
G1  X181.471 Y256.079   E0.0099
G1  X181.221 Y256.012   E0.0099
G1  X180.974 Y255.930   E0.0099
G1  X180.733 Y255.834   E0.0099
G1  X180.498 Y255.724   E0.0099
G1  X180.270 Y255.601   E0.0099
G1  X180.049 Y255.464   E0.0099
G1  X179.837 Y255.315   E0.0099
G1  X179.633 Y255.154   E0.0099
G1  X179.440 Y254.981   E0.0099
G1  X179.257 Y254.797   E0.0099
G1  X179.085 Y254.602   E0.0099
G1  X178.924 Y254.399   E0.0099
G1  X178.776 Y254.186   E0.0099
G1  X178.640 Y253.964   E0.0099
G1  X178.518 Y253.736   E0.0099
G1  X178.409 Y253.500   E0.0099
G1  X185.375 Y253.294  
G1  X186.057 Y253.977   E0.0367
G1  X185.790 Y254.356  
G1  X184.728 Y253.294   E0.0570
G1  X184.082 
G1  X185.486 Y254.699   E0.0755
G1  X185.148 Y255.006  
G1  X183.435 Y253.294   E0.0920
G1  X182.789 
G1  X184.773 Y255.278   E0.1066
G1  X184.361 Y255.513  
G1  X182.143 Y253.294   E0.1192
G1  X181.496 
G1  X183.907 Y255.705   E0.1296
G1  X183.404 Y255.848  
G1  X180.850 Y253.294   E0.1373
G1  X180.203 
G1  X182.842 Y255.933   E0.1418
G1  X182.199 Y255.936  
G1  X179.557 Y253.294   E0.1420
G1  X178.911 
G1  X181.422 Y255.806   E0.1350
G1  X178.409 Y253.500  
G1  X165.000  E0.5096
G1  Y250.000  E0.1330
G1  X178.409  E0.5096
G1  X178.518 Y249.764   E0.0099
G1  X178.640 Y249.536   E0.0099
G1  X178.776 Y249.314   E0.0099
G1  X178.924 Y249.101   E0.0099
G1  X179.085 Y248.898   E0.0099
G1  X179.257 Y248.703   E0.0099
G1  X179.440 Y248.519   E0.0099
G1  X179.633 Y248.346   E0.0099
G1  X179.837 Y248.185   E0.0099
G1  X180.049 Y248.036   E0.0099
G1  X180.270 Y247.899   E0.0099
G1  X180.498 Y247.776   E0.0099
G1  X180.733 Y247.666   E0.0099
G1  X180.974 Y247.570   E0.0099
G1  X181.221 Y247.488   E0.0099
G1  X181.471 Y247.421   E0.0099
G1  X181.725 Y247.368   E0.0099
G1  X181.982 Y247.330   E0.0099
G1  X182.241 Y247.308   E0.0099
G1  X182.500 Y247.300   E0.0099
G1  X182.759 Y247.308   E0.0099
G1  X183.018 Y247.330   E0.0099
G1  X183.275 Y247.368   E0.0099
G1  X183.529 Y247.421   E0.0099
G1  X183.779 Y247.488   E0.0099
G1  X184.026 Y247.570   E0.0099
G1  X184.267 Y247.666   E0.0099
G1  X184.502 Y247.776   E0.0099
G1  X184.730 Y247.899   E0.0099
G1  X184.951 Y248.036   E0.0099
G1  X185.163 Y248.185   E0.0099
G1  X185.367 Y248.346   E0.0099
G1  X185.560 Y248.519   E0.0099
G1  X185.743 Y248.703   E0.0099
G1  X185.915 Y248.898   E0.0099
G1  X186.076 Y249.101   E0.0099
G1  X186.224 Y249.314   E0.0099
G1  X186.360 Y249.536   E0.0099
G1  X186.482 Y249.764   E0.0099
G1  X186.591 Y250.000   E0.0099
G1  X179.625 Y250.206  
G1  X178.943 Y249.523   E0.0367
G1  X179.210 Y249.144  
G1  X180.272 Y250.206   E0.0570
G1  X180.918 
G1  X179.514 Y248.801   E0.0755
G1  X179.852 Y248.494  
G1  X181.565 Y250.206   E0.0920
G1  X182.211 
G1  X180.227 Y248.222   E0.1066
G1  X180.639 Y247.987  
G1  X182.857 Y250.206   E0.1192
G1  X183.504 
G1  X181.093 Y247.795   E0.1296
G1  X181.596 Y247.652  
G1  X184.150 Y250.206   E0.1373
G1  X184.797 
G1  X182.158 Y247.567   E0.1418
G1  X182.801 Y247.564  
G1  X185.443 Y250.206   E0.1420
G1  X186.089 
G1  X183.578 Y247.694   E0.1350
G1  X186.591 Y250.000  
G1  X200.000  E0.5096
G1  X200.457 Y249.543  
G1  Y253.957  E0.1678
G1  X186.882  E0.5159
G1  X186.756 Y254.192   E0.0101
G1  X186.607 Y254.436   E0.0109
G1  X186.443 Y254.671   E0.0109
G1  X186.266 Y254.896   E0.0109
G1  X186.077 Y255.110   E0.0109
G1  X185.875 Y255.313   E0.0109
G1  X185.661 Y255.503   E0.0109
G1  X185.437 Y255.681   E0.0109
G1  X185.203 Y255.846   E0.0109
G1  X184.959 Y255.996   E0.0109
G1  X184.708 Y256.132   E0.0109
G1  X184.448 Y256.254   E0.0109
G1  X184.183 Y256.360   E0.0109
G1  X183.911 Y256.450   E0.0109
G1  X183.635 Y256.524   E0.0109
G1  X183.354 Y256.582   E0.0109
G1  X183.071 Y256.624   E0.0109
G1  X182.786 Y256.649   E0.0109
