; HEADER_BLOCK_START
; generated by OrcaSlicer 2.3.0 on 2025-06-26 at 16:46:14
; total layer number: 240
;_GP_TOTAL_LAYER_NUMBER_PLACEHOLDER
; filament_density: 1.21
; filament_diameter: 1.75
; max_z_height: 48.00
; HEADER_BLOCK_END

; THUMBNAIL_BLOCK_START

;
; THUMBNAIL_BLOCK_END

; filament used [mm] = 3531.13
; filament used [cm3] = 8.49
; filament used [g] = 10.53
; total filament used [g] = 10.53
; total filament cost = 0.00
; estimated printing time (normal mode) = 18m 01s
; estimated first layer printing time (normal mode) = 60s


; external perimeters extrusion width = 0.50mm
; perimeters extrusion width = 0.45mm
; infill extrusion width = 0.45mm
; solid infill extrusion width = 0.42mm
; top infill extrusion width = 0.45mm
; first layer extrusion width = 0.45mm

M73 P0 R25
M106 S0
M106 P2 S0
; FEATURE: Custom
G90
M140 S60
M104 S140
M190 S60
M109 S140
PG28
M106 S255
M106 S0
M109 S210
P0 M3
G90
M83
G1 X25 Y10 Z0.8 F18000;Move to start position
G1 Z0.2
G0 E2 F300
G0 X220 E15 F4524.96 
G0 Y16 E0.700 F1131.24
G0 X219.5
G0 E0.2
G0 Y9.5 E0.700
G0 X23 E15 F4524.96 
M400
G1 Z4 F300
G90
G21
M83 ; use relative distances for extrusion
G90
G21
M83 ; use relative distances for extrusion
; filament start gcode
M106 P3 S0
G1 F1000
G1 Z0.2
G1 X141.967 Y161.41 E.00895
G1 X142.32 Y161.062 E.02639
G1 X142.446 Y160.772 E.01684
G1 X142.66 Y160.997 E.01653
G1 X142.944 Y161.161 E.01746
G1 X143.211 Y161.219 E.01455
G1 X144.126 Y161.164 E.04881
G1 X144.097 Y161.654 E.02614
G1 X144.111 Y164.04 E.12705
G1 X144.084 Y165.163 E.05981
G1 X144.224 Y165.572 E.02302
G1 X144.422 Y165.806 E.01632
G1 X144.815 Y166.026 E.02398
G1 X145.162 Y166.095 E.01884
G1 X145.517 Y166.06 E.01899
G1 X145.874 Y165.914 E.02054
G1 X146.157 Y165.653 E.0205
G1 X146.296 Y165.4 E.01537
G1 X146.428 Y164.846 E.03032
G1 X146.412 Y161.182 E.1951
G1 X147.092 Y161.18 E.03621
G1 X147.677 Y161.063 E.03177
G1 X147.918 Y160.912 E.01514
G1 X148.141 Y160.683 E.01702
G1 X148.324 Y160.973 E.01826
G1 X148.671 Y161.272 E.02439
G1 X149.01 Y161.393 E.01917
G1 X148.806 Y161.707 E.01994
G1 X148.708 Y162.258 E.0298
G1 X148.735 Y162.538 E.01498
G1 X148.882 Y162.864 E.01904
G1 X149.178 Y163.127 E.02108
;WIDTH:0.480039
G1 X149.304 Y163.162 E.00664
;WIDTH:0.453669
G1 X149.429 Y163.197 E.00618
;WIDTH:0.441309
G1 X150.091 Y163.38 E.03164
G1 X150.378 Y163.592 E.01644
;WIDTH:0.429578
G1 X150.466 Y163.773 E.00898
G1 X150.406 Y163.953 E.00847
G1 X150.337 Y164.001 E.00375
;WIDTH:0.448252
G1 X149.977 Y163.749 E.02062
G1 X149.707 Y163.632 E.01381
;WIDTH:0.453128
G1 X149.404 Y163.575 E.01465
;WIDTH:0.480039
G1 X149.1 Y163.519 E.0157
;WIDTH:0.5
G1 X148.798 Y163.565 E.01627
G1 X148.455 Y163.747 E.02068
G1 X148.266 Y163.927 E.0139
G1 X148.075 Y164.293 E.02198
G1 X148.015 Y164.653 E.01943
G1 X148.094 Y165.108 E.02459
G1 X148.297 Y165.498 E.02341
G1 X148.605 Y165.795 E.02278
G1 X149.206 Y166.096 E.03579
G1 X149.985 Y166.234 E.04212
G1 X150.726 Y166.206 E.03948
G1 X151.257 Y166.079 E.02907
G1 X151.741 Y165.84 E.02874
G1 X152.126 Y165.531 E.02629
G1 X152.425 Y165.169 E.025
G1 X152.702 Y164.675 E.03016
;WIDTH:0.53661
G1 X152.798 Y164.415 E.016
;WIDTH:0.57322
G1 X152.895 Y164.156 E.0172
G1 X152.91 Y164.192 E.00243
;WIDTH:0.566209
G1 X152.923 Y164.534 E.02099
;WIDTH:0.533104
G1 X152.937 Y164.876 E.01961
;WIDTH:0.5
G1 X153.067 Y165.473 E.03253
G1 X153.415 Y165.903 E.02945
G1 X153.718 Y166.046 E.01784
G1 X154.047 Y166.102 E.01777
G1 X154.641 Y166.063 E.0317
G1 X155.38 Y166.069 E.03935
G1 X155.957 Y166.035 E.03078
G1 X156.575 Y165.926 E.03341
G1 X157.114 Y165.725 E.03063
G1 X157.675 Y165.347 E.03602
G1 X157.803 Y165.686 E.01929
G1 X158.079 Y166.059 E.02471
G1 X158.589 Y166.397 E.03258
G1 X158.832 Y166.486 E.01378
G1 X159.251 Y166.549 E.02256
G1 X159.776 Y166.466 E.0283
G1 X159.984 Y166.385 E.01189
G1 X160.411 Y166.095 E.02748
G1 X160.637 Y165.814 E.0192
G1 X160.824 Y166.01 E.01442
G1 X161.193 Y166.211 E.02237
G1 X161.535 Y166.263 E.01842
G1 X161.77 Y166.244 E.01255
G1 X162.044 Y166.128 E.01584
G1 X162.28 Y165.943 E.01597
G1 X162.604 Y165.541 E.02749
G1 X162.852 Y165.876 E.02219
G1 X163.157 Y166.138 E.02141
G1 X163.581 Y166.278 E.02378
;WIDTH:0.535349
G1 X164.097 Y166.234 E.02981
;WIDTH:0.578065
G1 X164.323 Y166.176 E.01465
;WIDTH:0.617888
G1 X164.464 Y166.081 E.0115
;WIDTH:0.657712
G1 X164.605 Y165.985 E.01237
;WIDTH:0.697536
G1 X164.746 Y165.889 E.0132
;WIDTH:0.701291
G1 X164.9 Y165.604 E.02522
G1 X164.894 Y165.534 E.00547
;WIDTH:0.661032
G1 X164.888 Y165.464 E.00512
;WIDTH:0.620774
G1 X164.882 Y165.394 E.00478
;WIDTH:0.580516
G1 X164.876 Y165.323 E.0045
;WIDTH:0.540258
G1 X164.87 Y165.253 E.00409
;WIDTH:0.542981
G1 X164.881 Y165.128 E.00734
;WIDTH:0.585963
G1 X164.892 Y165.002 E.00806
;WIDTH:0.628945
G1 X164.903 Y164.877 E.00866
;WIDTH:0.671926
G1 X164.914 Y164.751 E.00939
;WIDTH:0.687327
G1 X164.717 Y164.276 E.03916
G1 X164.566 Y164.071 E.01939
;WIDTH:0.640495
G1 X164.416 Y163.867 E.01783
;WIDTH:0.593663
G1 X164.265 Y163.662 E.01647
;WIDTH:0.546831
G1 X164.115 Y163.457 E.01498
;WIDTH:0.5
G1 X164.004 Y163.273 E.01144
G1 X164.033 Y163.082 E.01029
G1 X164.645 Y162.045 E.06411
G1 X165.01 Y163.026 E.05573
;WIDTH:0.546831
G1 X165.077 Y163.271 E.01498
;WIDTH:0.593663
G1 X165.143 Y163.517 E.01648
;WIDTH:0.640495
G1 X165.209 Y163.762 E.01787
;WIDTH:0.687327
G1 X165.323 Y164.124 E.0289
;WIDTH:0.679445
G1 X165.501 Y164.594 E.03778
;WIDTH:0.674269
G1 X165.572 Y164.701 E.00957
;WIDTH:0.630702
G1 X165.643 Y164.809 E.00895
;WIDTH:0.587135
G1 X165.713 Y164.917 E.00822
;WIDTH:0.543567
G1 X165.784 Y165.024 E.00752
;WIDTH:0.5
G1 X165.848 Y165.212 E.01057
G1 X165.787 Y165.398 E.01042
;WIDTH:0.540258
G1 X165.727 Y165.489 E.00634
;WIDTH:0.580516
G1 X165.667 Y165.579 E.00682
;WIDTH:0.620774
G1 X165.607 Y165.67 E.00741
;WIDTH:0.661032
G1 X165.547 Y165.761 E.00795
;WIDTH:0.701291
G1 X165.487 Y165.851 E.00842
;WIDTH:0.70644
G1 X165.257 Y166.287 E.03869
G1 X165.091 Y166.378 E.01486
;WIDTH:0.697536
G1 X164.923 Y166.457 E.01437
;WIDTH:0.657712
G1 X164.756 Y166.537 E.01343
;WIDTH:0.617888
G1 X164.588 Y166.616 E.01256
;WIDTH:0.578065
G1 X164.381 Y166.792 E.01706
;WIDTH:0.535349
G1 X164.16 Y167.169 E.02516
;WIDTH:0.5
G1 X164.109 Y167.683 E.0275
G1 X164.26 Y168.148 E.02603
G1 X164.457 Y168.422 E.01797
G1 X164.703 Y168.624 E.01695
;WIDTH:0.541085
G1 X164.851 Y168.679 E.0092
;WIDTH:0.582171
G1 X164.999 Y168.733 E.00997
;WIDTH:0.623257
G1 X165.146 Y168.788 E.01072
;WIDTH:0.664343
G1 X165.294 Y168.843 E.01158
;WIDTH:0.705429
G1 X165.442 Y168.898 E.01237
G1 X165.731 Y168.852 E.02293
;WIDTH:0.700788
G1 X166.323 Y168.675 E.04807
G1 X166.431 Y168.58 E.01119
;WIDTH:0.660631
G1 X166.538 Y168.485 E.01043
;WIDTH:0.620473
G1 X166.646 Y168.391 E.00973
;WIDTH:0.580315
G1 X166.754 Y168.296 E.00907
;WIDTH:0.540157
G1 X166.862 Y168.201 E.00836
;WIDTH:0.5
G1 X167.25 Y167.687 E.03429
G1 X167.379 Y167.428 E.01541
G1 X167.723 Y166.617 E.04691
G1 X168.062 Y165.723 E.05091
;WIDTH:0.508329
G1 X168.328 Y164.991 E.04226
;WIDTH:0.542896
G1 X168.435 Y164.746 E.01564
;WIDTH:0.577464
G1 X168.541 Y164.5 E.0168
;WIDTH:0.599118
G1 X168.788 Y163.843 E.04588
G1 X168.857 Y163.575 E.01809
;WIDTH:0.549559
G1 X168.927 Y163.307 E.01643
;WIDTH:0.5
G1 X169.127 Y162.699 E.03408
G1 X169.332 Y162.229 E.0273
G1 X169.484 Y162.383 E.01152
G1 X169.834 Y162.564 E.02098
G1 X170.355 Y162.644 E.02807
G1 X169.609 Y163.683 E.06811
;WIDTH:0.549559
G1 X169.433 Y163.886 E.01593
;WIDTH:0.599118
G1 X169.257 Y164.089 E.01756
M73 P3 R16
G1 X169.178 Y164.256 E.01208
;WIDTH:0.584612
G1 X168.986 Y164.8 E.03668
G1 X169.023 Y165.077 E.01777
;WIDTH:0.542306
G1 X169.059 Y165.355 E.01638
;WIDTH:0.5
G1 X169.257 Y165.829 E.02735
G1 X169.463 Y166.032 E.0154
G1 X169.834 Y166.239 E.02262
G1 X170.053 Y166.273 E.0118
G1 X172.116 Y166.267 E.10985
G1 X171.568 Y166.741 E.03858
G1 X171.016 Y167.169 E.03719
G1 X170.519 Y167.519 E.03237
G1 X170.016 Y167.842 E.03183
G1 X169.389 Y168.205 E.03858
G1 X168.577 Y168.615 E.04843
G1 X167.709 Y168.985 E.05024
G1 X167.063 Y169.211 E.03644
;WIDTH:0.540157
G1 X166.96 Y169.222 E.00602
;WIDTH:0.580315
G1 X166.857 Y169.233 E.00653
;WIDTH:0.620473
G1 X166.754 Y169.244 E.00704
;WIDTH:0.660631
G1 X166.651 Y169.256 E.00756
;WIDTH:0.700788
G1 X166.549 Y169.267 E.00798
G1 X166.327 Y169.335 E.01806
;WIDTH:0.705429
G1 X165.486 Y169.531 E.06766
G1 X165.385 Y169.573 E.00857
;WIDTH:0.664343
G1 X165.285 Y169.615 E.00795
;WIDTH:0.623257
G1 X165.184 Y169.657 E.00747
;WIDTH:0.582171
G1 X165.083 Y169.699 E.00692
;WIDTH:0.541085
G1 X164.983 Y169.741 E.00632
;WIDTH:0.5
G1 X164.133 Y169.861 E.04571
G1 X163.256 Y169.932 E.04685
G1 X162.327 Y169.947 E.04947
G1 X161.669 Y169.922 E.03506
G1 X138.455 Y168.503 E1.23836
G1 X137.893 Y168.39 E.03052
G1 X137.584 Y168.179 E.01992
G1 X137.384 Y167.831 E.02137
G1 X137.29 Y167.35 E.0261
G1 X137.291 Y164.494 E.15207
G1 X137.504 Y164.907 E.02474
G1 X137.863 Y165.346 E.0302
G1 X138.332 Y165.73 E.03228
G1 X139.087 Y166.093 E.04461
G1 X139.731 Y166.22 E.03495
G1 X140.67 Y166.195 E.05002
G1 X141.27 Y166.032 E.03311
G1 X141.835 Y165.71 E.03463
G1 X142.14 Y165.42 E.02241
G1 X142.441 Y164.946 E.0299
G1 X142.554 Y164.518 E.02357
G1 X142.467 Y164.095 E.02299
G1 X142.315 Y163.836 E.01599
G1 X142.164 Y163.679 E.0116
G1 X141.962 Y163.536 E.01318
G1 X141.549 Y163.38 E.02351
G1 X140.977 Y163.396 E.03047
G1 X140.65 Y163.55 E.01925
G1 X140.366 Y163.809 E.02047
G1 X140.187 Y163.855 E.00984
G1 X139.823 Y163.835 E.01941
G1 X139.547 Y163.674 E.01701
G1 X139.381 Y163.399 E.0171
G1 X139.267 Y162.849 E.02991
G1 X139.271 Y162.134 E.03807
G1 X139.369 Y161.598 E.02901
G1 X139.478 Y161.349 E.01447
G1 X139.774 Y161.109 E.02029
G1 X140.118 Y161.073 E.01842
G1 X140.814 Y161.457 E.04233
G1 X141.305 Y161.571 E.02684
G1 X141.623 Y161.554 E.01696
G1 X141.757 Y161.498 E.00773
M204 S20000
G1 E-1 F1800
G1 X174.984 Y162.549 F30000
G1 E1 F1800
M204 S500
G1 F4500
G1 X174.978 Y162.615 E.00353
G1 X174.85 Y162.907 E.01698
G1 X174.416 Y163.601 E.04358
G1 X173.995 Y164.2 E.03898
G1 X173.633 Y164.666 E.03142
G1 X173.516 Y164.422 E.01441
G1 X173.198 Y164.118 E.02342
G1 X172.876 Y163.986 E.01853
G1 X172.327 Y163.905 E.02955
G1 X173.191 Y162.685 E.0796
G1 X173.512 Y162.129 E.03418
G1 X173.631 Y161.692 E.02412
G1 X173.63 Y161.329 E.01933
G1 X173.45 Y160.822 E.02865
;WIDTH:0.506742
G1 X173.244 Y160.559 E.01806
G1 X173.016 Y160.411 E.0147
;WIDTH:0.501166
G1 X172.529 Y160.299 E.02668
;WIDTH:0.5
G1 X170.427 Y160.297 E.11192
G1 X169.92 Y160.353 E.02716
G1 X169.493 Y160.565 E.02538
G1 X169.256 Y160.786 E.01725
G1 X168.981 Y160.51 E.02075
G1 X168.641 Y160.338 E.02029
G1 X168.308 Y160.31 E.01779
G1 X168.007 Y160.389 E.01657
G1 X167.769 Y160.511 E.01424
G1 X167.415 Y160.919 E.02876
G1 X167.202 Y161.325 E.02441
G1 X167.029 Y161.812 E.02752
G1 X166.865 Y161.239 E.03174
G1 X166.615 Y160.78 E.02783
G1 X166.418 Y160.573 E.01522
G1 X166.028 Y160.375 E.02329
G1 X165.622 Y160.299 E.02199
G1 X165.212 Y160.367 E.02213
G1 X164.963 Y160.492 E.01484
G1 X164.654 Y160.848 E.0251
G1 X164.447 Y160.59 E.01761
G1 X164.029 Y160.342 E.02588
G1 X163.618 Y160.302 E.02199
G1 X163.279 Y160.409 E.01893
G1 X163.013 Y160.577 E.01675
G1 X162.667 Y160.943 E.02682
G1 X162.278 Y160.506 E.03115
G1 X161.921 Y160.334 E.0211
G1 X161.527 Y160.301 E.02105
G1 X160.992 Y160.482 E.03007
G1 X160.722 Y160.716 E.01902
G1 X160.54 Y161.056 E.02053
G1 X160.487 Y161.35 E.01591
G1 X160.547 Y161.774 E.0228
G1 X160.743 Y162.24 E.02692
G1 X161.337 Y163.268 E.06322
G1 X161.106 Y163.599 E.02149
G1 X160.786 Y164.16 E.03439
G1 X160.695 Y163.98 E.01074
G1 X160.448 Y163.665 E.02131
G1 X159.991 Y163.348 E.02961
G1 X159.76 Y163.26 E.01316
G1 X159.195 Y163.182 E.03037
G1 X158.733 Y163.277 E.02511
G1 X158.793 Y162.813 E.02491
G1 X158.788 Y162.127 E.03653
G1 X158.723 Y161.537 E.03161
G1 X158.586 Y160.984 E.03034
G1 X158.4 Y160.486 E.02831
G1 X158.099 Y159.993 E.03076
G1 X157.762 Y159.617 E.02689
G1 X157.327 Y159.29 E.02898
G1 X156.862 Y159.077 E.02723
G1 X156.339 Y158.946 E.02871
G1 X155.838 Y158.885 E.02687
G1 X154.25 Y158.849 E.08458
G1 X153.904 Y158.88 E.0185
G1 X153.439 Y159.04 E.02618
G1 X153.1 Y159.344 E.02425
G1 X152.931 Y159.768 E.0243
G1 X152.924 Y159.986 E.01161
;WIDTH:0.469713
G1 X152.979 Y160.572 E.02916
;WIDTH:0.460619
G1 X152.967 Y161.364 E.03836
;WIDTH:0.495425
G1 X152.95 Y161.562 E.01047
;WIDTH:0.530231
G1 X152.932 Y161.76 E.01132
;WIDTH:0.565038
G1 X152.914 Y161.959 E.01223
G1 X152.913 Y162.763 E.0492
;WIDTH:0.567119
G1 X152.911 Y163.486 E.04443
G1 X152.71 Y162.653 E.05266
;WIDTH:0.565038
G1 X152.506 Y162.19 E.03096
G1 X152.379 Y161.998 E.01409
G1 X152.468 Y161.789 E.0139
;WIDTH:0.55341
G1 X152.509 Y161.58 E.01273
;WIDTH:0.517748
G1 X152.551 Y161.371 E.01181
;WIDTH:0.482086
G1 X152.593 Y161.162 E.01088
;WIDTH:0.446424
G1 X152.602 Y160.377 E.03666
;WIDTH:0.465769
G1 X152.539 Y160.098 E.01403
;WIDTH:0.5
G1 X152.475 Y159.819 E.01524
G1 X152.12 Y159.339 E.03179
G1 X151.946 Y159.181 E.01251
G1 X151.397 Y158.871 E.03357
G1 X150.776 Y158.72 E.03403
G1 X150.06 Y158.693 E.03815
G1 X149.497 Y158.768 E.03024
G1 X148.968 Y158.966 E.03008
G1 X148.605 Y159.162 E.02197
G1 X148.243 Y159.522 E.02718
G1 X148.208 Y159.428 E.00534
G1 X147.993 Y159.14 E.01914
G1 X147.757 Y158.979 E.01521
G1 X147.277 Y158.859 E.02634
G1 X144.001 Y158.87 E.17444
G1 X143.422 Y158.829 E.03091
G1 X143.088 Y158.864 E.01788
G1 X142.854 Y158.948 E.01324
G1 X142.56 Y159.172 E.01968
G1 X142.391 Y159.371 E.0139
G1 X142.28 Y159.662 E.01658
G1 X141.925 Y159.293 E.02726
G1 X141.405 Y158.955 E.03302
G1 X140.859 Y158.77 E.0307
G1 X140.048 Y158.69 E.04339
G1 X139.385 Y158.76 E.0355
G1 X138.741 Y158.97 E.03607
G1 X138.129 Y159.345 E.03822
G1 X137.624 Y159.857 E.03829
G1 X137.292 Y160.391 E.03348
G1 X137.293 Y157.728 E.14179
G1 X137.36 Y157.268 E.02475
G1 X137.467 Y156.999 E.01541
G1 X137.721 Y156.71 E.02049
G1 X138.079 Y156.544 E.02101
G1 X138.327 Y156.505 E.01337
G1 X161.692 Y155.077 E1.24642
G1 X162.557 Y155.052 E.04608
G1 X163.595 Y155.088 E.0553
G1 X164.372 Y155.167 E.04159
G1 X165.166 Y155.292 E.0428
G1 X166.223 Y155.532 E.05771
G1 X167.002 Y155.762 E.04325
G1 X168.025 Y156.142 E.05811
G1 X168.854 Y156.518 E.04847
G1 X169.739 Y156.993 E.05348
G1 X170.204 Y157.282 E.02915
G1 X171.361 Y158.095 E.07529
G1 X172.118 Y158.733 E.05271
G1 X172.887 Y159.487 E.05734
;WIDTH:0.501166
G1 X173.345 Y159.987 E.0362
G1 X173.692 Y160.409 E.02917
;WIDTH:0.5
G1 X174.026 Y160.842 E.02912
G1 X174.628 Y161.733 E.05726
G1 X174.944 Y162.275 E.03341
G1 X174.975 Y162.489 E.01151
M204 S20000
G1 X175.418 Y162.587 F30000
M204 S500
;TYPE:External perimeter
G1 F3000
G1 X175.407 Y162.705 E.00631
G1 X175.225 Y163.127 E.02447
G1 X174.854 Y163.728 E.03761
G1 X174.558 Y164.171 E.02837
G1 X174.173 Y164.691 E.03445
G1 X173.621 Y165.382 E.04709
;WIDTH:0.465755
G1 X173.488 Y165.555 E.01071
;WIDTH:0.43151
G1 X173.356 Y165.729 E.0098
;WIDTH:0.444833
G1 X173.117 Y165.943 E.01492
;WIDTH:0.492402
G1 X172.877 Y166.157 E.01682
;WIDTH:0.5
G1 X172.41 Y166.593 E.03402
G1 X171.844 Y167.079 E.03972
G1 X171.275 Y167.519 E.0383
G1 X170.762 Y167.881 E.03343
G1 X170.243 Y168.214 E.03283
G1 X169.596 Y168.588 E.03979
G1 X168.761 Y169.01 E.04982
G1 X167.866 Y169.392 E.05181
G1 X166.949 Y169.712 E.05171
G1 X166.013 Y169.972 E.05173
G1 X165.058 Y170.17 E.05193
G1 X164.181 Y170.294 E.04716
G1 X163.277 Y170.367 E.04829
G1 X162.322 Y170.383 E.05086
G1 X161.647 Y170.357 E.03597
G1 X138.287 Y168.929 E1.24615
G1 X137.727 Y168.798 E.03062
G1 X137.389 Y168.594 E.02102
G1 X137.07 Y168.216 E.02634
G1 X136.91 Y167.82 E.02274
G1 X136.854 Y167.378 E.02372
G1 X136.855 Y163.959 E.18205
;WIDTH:0.53114
G1 X136.871 Y163.191 E.04383
G1 X136.861 Y162.466 E.04137
;WIDTH:0.532506
G1 X136.872 Y161.718 E.0428
G1 X136.856 Y161.098 E.03549
;WIDTH:0.5
G1 X136.858 Y157.526 E.1902
G1 X136.979 Y156.972 E.03019
G1 X137.184 Y156.619 E.02174
G1 X137.473 Y156.345 E.0212
G1 X137.951 Y156.124 E.02804
G1 X138.279 Y156.071 E.01769
G1 X161.672 Y154.641 E1.24791
G1 X162.559 Y154.616 E.04725
G1 X163.624 Y154.654 E.05674
G1 X164.428 Y154.735 E.04303
G1 X165.248 Y154.864 E.0442
G1 X166.333 Y155.11 E.05924
G1 X167.139 Y155.349 E.04476
G1 X168.191 Y155.739 E.05974
G1 X169.048 Y156.127 E.05009
